icon-svg/bulbs-sultan.svg

<?xml version="1.0" encoding="UTF-8"?>
<svg width="32px" height="32px" viewBox="0 0 32 32" version="1.1" fill="#44739e" xmlns="http://www.w3.org/2000/svg" xmlns:xlink="http://www.w3.org/1999/xlink">
            <path d="M22.3035196,5.39750357 C23.8285196,6.79950357 22.4405196,9.38250357 21.9745196,10.3045036 C20.7175196,10.6705036 18.7055196,10.9995036 15.9995196,10.9995036 C13.2935196,10.9995036 11.2825196,10.6705036 10.0255196,10.3045036 C9.55951963,9.38250357 8.17051963,6.79950357 9.69651963,5.39750357 C11.3275196,3.89850357 15.7245196,4.00150357 15.9995196,4.00150357 C16.2755196,4.00150357 20.6715196,3.89850357 22.3035196,5.39750357 Z M15.9998196,11.9991036 C17.5228196,11.9991036 19.7458196,11.8561036 21.5388196,11.4461036 C20.1808196,15.6651036 19.9478196,19.5241036 19.9938196,20.6221036 C20.0048196,20.8771036 19.9178196,21.1181036 19.7518196,21.3111036 L19.3108196,21.8151036 C18.3588196,21.9281036 17.2558196,21.9991036 15.9998196,21.9991036 C14.7438196,21.9991036 13.6408196,21.9281036 12.6888196,21.8151036 L12.2478196,21.3111036 C12.0818196,21.1181036 11.9948196,20.8771036 12.0058196,20.6221036 C12.0518196,19.5241036 11.8188196,15.6651036 10.4608196,11.4461036 C12.2538196,11.8561036 14.4768196,11.9991036 15.9998196,11.9991036 Z M13.0018196,22.8614036 C14.0438196,22.9624036 15.1898196,22.9994036 16.0038196,22.9994036 C16.8178196,22.9994036 17.9638196,22.9624036 19.0058196,22.8614036 L18.5048196,25.9694036 C18.4788196,26.1874036 18.3728196,26.3894036 18.2048196,26.5424036 L17.7378196,26.9664036 C17.7058196,26.9954036 17.6768196,27.0264036 17.6488196,27.0584036 L17.1558196,27.6414036 C16.9658196,27.8674036 16.6758196,27.9994036 16.3688196,27.9994036 L16.0038196,27.9994036 L15.6388196,27.9994036 C15.3318196,27.9994036 15.0428196,27.8674036 14.8528196,27.6414036 L14.3578196,27.0584036 C14.3308196,27.0264036 14.3018196,26.9954036 14.2708196,26.9664036 L13.8038196,26.5424036 C13.6358196,26.3894036 13.5288196,26.1874036 13.5028196,25.9694036 L13.0018196,22.8614036 Z"></path>
</svg>

<svg xmlns="http://www.w3.org/2000/svg" fill="#44739e" viewBox="0 0 24 24"><path d="M22.3035 5.3975c1.525 1.402.137 3.985-.329 4.907-1.257.366-3.269.695-5.975.695s-4.717-.329-5.974-.695c-.466-.922-1.855-3.505-.329-4.907 1.631-1.499 6.028-1.396 6.303-1.396.276 0 4.672-.103 6.304 1.396m-6.3037 6.6016c1.523 0 3.746-.143 5.539-.553-1.358 4.219-1.591 8.078-1.545 9.176.011.255-.076.496-.242.689l-.441.504c-.952.113-2.055.184-3.311.184s-2.359-.071-3.311-.184l-.441-.504c-.166-.193-.253-.434-.242-.689.046-1.098-.187-4.957-1.545-9.176 1.793.41 4.016.553 5.539.553m-2.998 10.8623c1.042.101 2.188.138 3.002.138s1.96-.037 3.002-.138l-.501 3.108c-.026.218-.132.42-.3.573l-.467.424c-.032.029-.061.06-.089.092l-.493.583c-.19.226-.48.358-.787.358h-.73c-.307 0-.596-.132-.786-.358l-.495-.583a1.1 1.1 0 0 0-.087-.092l-.467-.424c-.168-.153-.275-.355-.301-.573z"/></svg>
